app/dist/common/images/first-merchants.svg

<svg height="18" width="18" xmlns="http://www.w3.org/2000/svg"><path d="m0 0h18v18h-18z" fill="#a87a00"/><g fill="#fff"><path d="m4 7.082v-1.519l5-1.709 5 1.646v1.52l-5-1.773z"/><path d="m4 12.715v-5.232l3-.983v7.248zm10-.019v-5.208l-3-.988v7.121zm-5-7.006-1.487.55v7.625l1.487.56 1.485-.56v-7.625z"/></g></svg>

<!-- by TradingView --><svg width="18" height="18" xmlns="http://www.w3.org/2000/svg"><path fill="#A87A00" d="M0 0h18v18H0z"/><path d="M4 7.082V5.563l5-1.709L14 5.5V7.02L9 5.247 4 7.082z" fill="#fff"/><path d="M4 12.715V7.483L7 6.5v7.248l-3-1.033zM14 12.696V7.488L11 6.5v7.121l3-.925zM9 5.69l-1.487.55v7.625l1.487.56 1.485-.56V6.24L9 5.69z" fill="#fff"/></svg>
